polaris-icons/icons/new-icons/ExtendMajor.svg

<svg width="20" height="20" viewBox="0 0 20 20" fill="none" xmlns="http://www.w3.org/2000/svg">
<path d="M13.25 8C13.6642 8 14 7.66421 14 7.25C14 6.83579 13.6642 6.5 13.25 6.5L6.06066 6.5L7.28033 5.28033C7.57322 4.98744 7.57322 4.51256 7.28033 4.21967C6.98744 3.92678 6.51256 3.92678 6.21967 4.21967L3.71967 6.71967C3.42678 7.01256 3.42678 7.48744 3.71967 7.78033L6.21967 10.2803C6.51256 10.5732 6.98744 10.5732 7.28033 10.2803C7.57322 9.98744 7.57322 9.51256 7.28033 9.21967L6.06066 8L13.25 8Z" fill="#4A4A4A"/>
<path d="M6.75 13.5C6.33579 13.5 6 13.1642 6 12.75C6 12.3358 6.33579 12 6.75 12H13.9393L12.7197 10.7803C12.4268 10.4874 12.4268 10.0126 12.7197 9.71967C13.0126 9.42678 13.4874 9.42678 13.7803 9.71967L16.2803 12.2197C16.5732 12.5126 16.5732 12.9874 16.2803 13.2803L13.7803 15.7803C13.4874 16.0732 13.0126 16.0732 12.7197 15.7803C12.4268 15.4874 12.4268 15.0126 12.7197 14.7197L13.9393 13.5H6.75Z" fill="#4A4A4A"/>
</svg>

<svg viewBox="0 0 20 20" xmlns="http://www.w3.org/2000/svg"><path d="M13.25 8a.75.75 0 0 0 0-1.5h-7.19l1.22-1.22a.75.75 0 0 0-1.06-1.06l-2.5 2.5a.75.75 0 0 0 0 1.06l2.5 2.5a.75.75 0 1 0 1.06-1.06l-1.22-1.22h7.19Z" fill="#5C5F62"/><path d="M6.75 13.5a.75.75 0 0 1 0-1.5h7.19l-1.22-1.22a.75.75 0 1 1 1.06-1.06l2.5 2.5a.75.75 0 0 1 0 1.06l-2.5 2.5a.75.75 0 1 1-1.06-1.06l1.22-1.22h-7.19Z" fill="#5C5F62"/></svg>
